icons/element.svg

<?xml version="1.0" encoding="UTF-8"?>
<svg width="256px" height="293px" viewBox="0 0 256 293" version="1.1" xmlns="http://www.w3.org/2000/svg" xmlns:xlink="http://www.w3.org/1999/xlink" preserveAspectRatio="xMidYMid">
    <g>
        <path d="M255.947266,209.281745 C255.874264,221.407777 249.575509,224.112685 249.575509,224.112685 C249.575509,224.112685 140.882282,286.919476 133.815487,290.85456 C126.813225,293.86013 122.13306,290.85456 122.13306,290.85456 C122.13306,290.85456 8.40103675,224.893985 4.24982358,221.994281 C0.0975531461,219.094578 0.00128410859,214.578282 0.00128410859,214.578282 C0.00128410859,214.578282 0.115537463,83.96565 0.00128410859,77.9174555 C-0.112970015,71.8682021 7.43517072,67.3233224 7.43517072,67.3233224 L121.070925,1.64117726 C128.06684,-2.05147157 134.877622,1.64117726 134.877622,1.64117726 C134.877622,1.64117726 235.264194,59.9920169 246.389104,66.263591 C257.292918,71.4479093 255.947266,82.154262 255.947266,82.154262 C255.947266,82.154262 256.014969,198.012179 255.947266,209.281745 Z M210.577087,78.1927103 C187.309559,64.8005062 132.497467,33.0413968 132.497467,33.0413968 C132.497467,33.0413968 127.149766,30.1512212 121.657131,33.0413968 L32.4388464,84.4441702 C32.4388464,84.4441702 26.5124714,88.0023676 26.602393,92.7356909 C26.6923146,97.4690149 26.602393,199.688056 26.602393,199.688056 C26.602393,199.688056 26.6775044,203.222963 29.9379621,205.491698 C33.1973626,207.760433 122.490759,259.382351 122.490759,259.382351 C122.490759,259.382351 126.165915,261.734721 131.662781,259.382351 C137.211485,256.302673 222.54938,207.149579 222.54938,207.149579 C222.54938,207.149579 227.495079,205.032234 227.552205,195.542296 C227.568074,192.805628 227.574421,182.182911 227.575479,168.83623 L127.103217,229.717296 L127.103217,206.426506 C127.103217,196.860343 134.508542,190.546422 134.508542,190.546422 L223.377718,136.995602 C226.731272,133.493515 227.423141,127.88361 227.565958,125.762031 C227.562785,116.033891 227.558552,107.53593 227.555379,102.152581 L127.103217,163.020943 L127.103217,138.671481 C127.103217,129.105318 133.450638,124.908741 133.450638,124.908741 L210.577087,78.1927103 Z" fill="#409EFF"></path>
    </g>
</svg>

<svg xmlns="http://www.w3.org/2000/svg" viewBox="0 0 256 292.19">
  <path fill="#409eff" d="M255.947 209.282c-.073 12.126-6.371 14.83-6.371 14.83s-108.694 62.807-115.76 66.743c-7.003 3.005-11.683 0-11.683 0S8.401 224.894 4.25 221.995C.098 219.094 0 214.577 0 214.577s.115-130.612 0-136.66c-.114-6.05 7.434-10.595 7.434-10.595L121.071 1.641c6.996-3.692 13.807 0 13.807 0s100.386 58.351 111.511 64.623c10.904 5.184 9.558 15.89 9.558 15.89s.068 115.858 0 127.128zm-45.37-131.09c-23.267-13.391-78.08-45.15-78.08-45.15s-5.347-2.89-10.84 0L32.44 84.443s-5.927 3.558-5.837 8.292c.09 4.733 0 106.952 0 106.952s.076 3.535 3.336 5.804c3.26 2.268 92.553 53.89 92.553 53.89s3.675 2.353 9.172 0c5.548-3.08 90.886-52.232 90.886-52.232s4.946-2.118 5.003-11.608c.016-2.736.022-13.36.023-26.706l-100.472 60.881v-23.29c0-9.567 7.406-15.88 7.406-15.88l88.869-53.551c3.353-3.502 4.045-9.112 4.188-11.234-.003-9.728-.007-18.226-.01-23.61l-100.453 60.869v-24.35c0-9.566 6.348-13.762 6.348-13.762z"/>
</svg>
